X:1
T:Title
%%score 1 { 2 | 3 }
L:1/8
Q:1/4=115
M:3/4
K:D
V:1 treble nm="Grand Piano, Soprano"
V:2 treble nm="Choir Pad, Kaunas, Charles Converse"
V:3 bass 
V:1
 [FA]2 [FA]3 [GB] | [FA]2 [FA]3 [EG] | [DF]2 [DF]2 [DF]2 | [CE]2 D4 | [FA]2 [Fd]2 [Fc]2 | %5
w: By~Charles~Crozat~Converse,~1886 * *|||||
 [GB]2 [FA]3 [EG] | [DF]2 [DB]2 [DA]2 | [DF]2 [CE]4 | [CE]2 [CA]2 [CE]2 | [EG]2 [DF]2 [FA]2 | %10
w: |||||
 [FA]2 [GB]2 [Ge]2 | [^Gd]2 [Ac]4 | [EB][EG] [DF]2 [FA]2- | [FA][FA] [GB]2 [GB]2 | %14
w: ||||
 [GB]2 [FA]2 [Fd]2 | [Ec]2 [Fd]4 | [FA][FA] [FA]4 | [DF][FA] [GB]4 | [GB][GB] [FA]4 | [Fd]2 [Ec]4 | %20
w: ||||||
 [Ec]2 [Fd]2 [FA]2 | [FA]2 [GB]2 [Gd]2 | [GB]2 [FA]2 [Fd]2 | [Ec]2 [Fd]4 | [FA][FA] [FA]4 | %25
w: |||||
 [DF][FA] [GB]4 | [GB][GB] [FA]4 | [Fd]2 [Ec]4 | [Ec]2 [Fd]2 [FA]2 | [FA]2 [GB]2 [Gd]2 | %30
w: |||||
 [GB]2 [FA]2 [Fd]2 | [Ec]2 [Fd]4- | [Fd]4 z2 |] %33
w: |||
V:2
 D2 D3 D | D2 D3[K:bass] A, | A,2 A,2 A,2 | G,2 F,4 | A,2 A,2 A,2 | B,C D3 A, | A,2 G,2 A,2 | %7
 A,2 A,4 | A,2 E,2 A,2 | A,2 A,2[K:treble] D2 | D2 D2 B,2 | E2 E4 | CA, A,2 D2- | DD D2 D2 | %14
 D2 D2[K:bass] A,2 | A,2 A,4 | DD[K:treble] D4 | A,D D4 | DD D4 | A,2 A,4 | A,2 A,2 D2 | %21
 D2 D2 B,2 | B,2 A,2 A,2 | A,2 A,4 | DD D4 | A,D D4 | DD D4 | A,2 A,4 | A,2 A,2 D2 | D2 D2 B,2 | %30
 D2 A,2 A,2 | A,2 A,4- | A,4 z2 |] %33
V:3
 D,2 D,3 D, | D,2 D,3 D, | D,2 D,2 D,2 | A,,2 D,4 | D,2 D,2 D,2 | D,2 D,3 D, | D,2 z2 F,2 | %7
 D,2 A,,4 | A,,2 A,,2 A,,2 | A,,2 D,2 D,2 | D,2 G,2 G,2 | E,2 A,4 | A,,A,, D,2 D,2- | %13
 D,D, G,2 G,2 | G,2 A,2 z2 | z2 D,4 | D,D, D,4 | D,D, G,4 | G,G, D,4 | D,2 z2 z2 | z2 D,2 D,2 | %21
 D,2 G,2 G,2 | G,2 z2 z2 | z2 D,4 | D,D, D,4 | D,D, G,4 | G,G, D,4 | D,2 z2 z2 | z2 D,2 D,2 | %29
 D,2 G,2 G,2 | G,2 z2 z2 | z2 D,4- | D,4 z2 |] %33

